docs/image/icon/profile.svg

<svg width="69" height="61" viewBox="0 0 69 61" fill="none" xmlns="http://www.w3.org/2000/svg">
<g clip-path="url(#clip0_5105_19)">
<path d="M34 18C37.315 18 40 15.315 40 12C40 8.685 37.315 6 34 6C30.685 6 28 8.685 28 12C28 15.315 30.685 18 34 18ZM34 21C29.995 21 22 23.01 22 27V30H46V27C46 23.01 38.005 21 34 21Z" fill="#2D2D2D"/>
</g>
<path d="M10.64 57H8.472V47.088H3.448V57H1.288V45.432H10.64V57ZM14.7489 54.872C14.9729 55.144 15.2155 55.336 15.4769 55.448C15.7435 55.56 16.0315 55.616 16.3409 55.616C16.6395 55.616 16.9089 55.56 17.1489 55.448C17.3889 55.336 17.5915 55.1653 17.7569 54.936C17.9275 54.7067 18.0582 54.4187 18.1489 54.072C18.2395 53.72 18.2849 53.3067 18.2849 52.832C18.2849 52.352 18.2449 51.9467 18.1649 51.616C18.0902 51.28 17.9809 51.008 17.8369 50.8C17.6929 50.592 17.5169 50.44 17.3089 50.344C17.1062 50.248 16.8742 50.2 16.6129 50.2C16.2022 50.2 15.8529 50.288 15.5649 50.464C15.2769 50.6347 15.0049 50.8773 14.7489 51.192V54.872ZM14.6449 49.912C14.9809 49.5333 15.3622 49.2267 15.7889 48.992C16.2155 48.7573 16.7169 48.64 17.2929 48.64C17.7409 48.64 18.1489 48.7333 18.5169 48.92C18.8902 49.1067 19.2102 49.3787 19.4769 49.736C19.7489 50.088 19.9569 50.5253 20.1009 51.048C20.2502 51.5653 20.3249 52.16 20.3249 52.832C20.3249 53.4453 20.2422 54.0133 20.0769 54.536C19.9115 55.0587 19.6742 55.512 19.3649 55.896C19.0609 56.28 18.6902 56.5813 18.2529 56.8C17.8209 57.0133 17.3355 57.12 16.7969 57.12C16.3382 57.12 15.9462 57.0507 15.6209 56.912C15.2955 56.768 15.0049 56.5707 14.7489 56.32V59.68H12.7729V48.792H13.9809C14.2369 48.792 14.4049 48.912 14.4849 49.152L14.6449 49.912ZM25.483 48.664C26.091 48.664 26.643 48.7627 27.139 48.96C27.6403 49.1573 28.067 49.4373 28.419 49.8C28.7763 50.1627 29.051 50.6053 29.243 51.128C29.435 51.6507 29.531 52.2347 29.531 52.88C29.531 53.5307 29.435 54.1173 29.243 54.64C29.051 55.1627 28.7763 55.608 28.419 55.976C28.067 56.344 27.6403 56.6267 27.139 56.824C26.643 57.0213 26.091 57.12 25.483 57.12C24.8697 57.12 24.3123 57.0213 23.811 56.824C23.3097 56.6267 22.8803 56.344 22.523 55.976C22.171 55.608 21.8963 55.1627 21.699 54.64C21.507 54.1173 21.411 53.5307 21.411 52.88C21.411 52.2347 21.507 51.6507 21.699 51.128C21.8963 50.6053 22.171 50.1627 22.523 49.8C22.8803 49.4373 23.3097 49.1573 23.811 48.96C24.3123 48.7627 24.8697 48.664 25.483 48.664ZM25.483 55.6C26.1657 55.6 26.6697 55.3707 26.995 54.912C27.3257 54.4533 27.491 53.7813 27.491 52.896C27.491 52.0107 27.3257 51.336 26.995 50.872C26.6697 50.408 26.1657 50.176 25.483 50.176C24.7897 50.176 24.275 50.4107 23.939 50.88C23.6083 51.344 23.443 52.016 23.443 52.896C23.443 53.776 23.6083 54.448 23.939 54.912C24.275 55.3707 24.7897 55.6 25.483 55.6ZM36.7745 55.648C37.5692 55.5893 38.1825 55.3227 38.6145 54.848C39.0518 54.3733 39.2705 53.7227 39.2705 52.896C39.2705 52.0693 39.0518 51.4187 38.6145 50.944C38.1825 50.464 37.5692 50.1947 36.7745 50.136V55.648ZM35.0465 50.136C34.6518 50.168 34.2998 50.2533 33.9905 50.392C33.6865 50.5253 33.4252 50.7093 33.2065 50.944C32.9932 51.1787 32.8305 51.4613 32.7185 51.792C32.6065 52.1173 32.5505 52.4853 32.5505 52.896C32.5505 53.3067 32.6065 53.6773 32.7185 54.008C32.8305 54.3333 32.9932 54.6133 33.2065 54.848C33.4252 55.0773 33.6865 55.2613 33.9905 55.4C34.2998 55.5333 34.6518 55.616 35.0465 55.648V50.136ZM36.8385 48.672C37.4945 48.7093 38.0918 48.8347 38.6305 49.048C39.1745 49.256 39.6385 49.5413 40.0225 49.904C40.4118 50.2667 40.7132 50.6987 40.9265 51.2C41.1398 51.7013 41.2465 52.2613 41.2465 52.88C41.2465 53.504 41.1398 54.0693 40.9265 54.576C40.7132 55.0773 40.4118 55.5093 40.0225 55.872C39.6385 56.2347 39.1745 56.5227 38.6305 56.736C38.0918 56.9493 37.4945 57.0747 36.8385 57.112V59.752H34.9825V57.112C34.3265 57.0747 33.7265 56.9493 33.1825 56.736C32.6438 56.5227 32.1798 56.2347 31.7905 55.872C31.4065 55.5093 31.1078 55.0773 30.8945 54.576C30.6812 54.0693 30.5745 53.504 30.5745 52.88C30.5745 52.2613 30.6812 51.7013 30.8945 51.2C31.1078 50.6987 31.4065 50.2667 31.7905 49.904C32.1798 49.5413 32.6438 49.256 33.1825 49.048C33.7265 48.8347 34.3265 48.7093 34.9825 48.672V45.432H36.8385V48.672ZM50.1176 48.792V57H48.1416V52.208C48.1416 52.0853 48.147 51.952 48.1576 51.808C48.1736 51.6587 48.1923 51.5093 48.2136 51.36C48.107 51.6053 47.9896 51.8213 47.8616 52.008C47.851 52.0187 47.7976 52.0933 47.7016 52.232C47.6056 52.3653 47.4803 52.5387 47.3256 52.752C47.1763 52.9653 47.0056 53.208 46.8136 53.48C46.6216 53.7467 46.427 54.0187 46.2296 54.296C45.7656 54.952 45.2403 55.6933 44.6536 56.52C44.579 56.632 44.4803 56.7413 44.3576 56.848C44.2403 56.9547 44.1043 57.008 43.9496 57.008H42.7416V48.8H44.7176V53.592C44.7176 53.7147 44.7096 53.8507 44.6936 54C44.683 54.144 44.667 54.2907 44.6456 54.44C44.763 54.1787 44.8803 53.9627 44.9976 53.792C45.003 53.7813 45.0536 53.7093 45.1496 53.576C45.2456 53.4427 45.3683 53.2693 45.5176 53.056C45.6723 52.8427 45.8456 52.6027 46.0376 52.336C46.2296 52.064 46.4243 51.7867 46.6216 51.504C47.0856 50.848 47.6136 50.1067 48.2056 49.28C48.2803 49.1627 48.379 49.0533 48.5016 48.952C48.6243 48.8453 48.763 48.792 48.9176 48.792H50.1176ZM59.6858 57H57.7098V50.304H55.6938C55.6298 51.312 55.5311 52.1813 55.3978 52.912C55.2644 53.6373 55.1044 54.2533 54.9178 54.76C54.7364 55.2667 54.5311 55.6747 54.3018 55.984C54.0778 56.288 53.8378 56.5253 53.5818 56.696C53.3258 56.8667 53.0618 56.9787 52.7898 57.032C52.5178 57.0907 52.2431 57.12 51.9658 57.12C51.6724 57.12 51.4564 57.0933 51.3178 57.04C51.1844 56.992 51.1178 56.9227 51.1178 56.832V55.6H51.5898C51.7658 55.6 51.9418 55.5733 52.1178 55.52C52.2938 55.4667 52.4644 55.3573 52.6298 55.192C52.7951 55.0267 52.9524 54.792 53.1018 54.488C53.2511 54.1787 53.3871 53.7733 53.5098 53.272C53.6378 52.7653 53.7498 52.1467 53.8458 51.416C53.9418 50.6853 54.0164 49.8107 54.0698 48.792H59.6858V57ZM64.9843 55.584C65.4323 55.584 65.7656 55.472 65.9843 55.248C66.2083 55.024 66.3203 54.736 66.3203 54.384C66.3203 54.2347 66.2936 54.0907 66.2403 53.952C66.1923 53.8133 66.1149 53.6907 66.0083 53.584C65.9016 53.4773 65.7629 53.3947 65.5923 53.336C65.4216 53.272 65.2163 53.24 64.9763 53.24H63.5123V55.584H64.9843ZM64.9683 51.832C65.5389 51.832 66.0216 51.9013 66.4163 52.04C66.8109 52.1787 67.1309 52.3653 67.3763 52.6C67.6216 52.8347 67.7976 53.1067 67.9043 53.416C68.0163 53.72 68.0723 54.04 68.0723 54.376C68.0723 54.76 68.0029 55.1147 67.8643 55.44C67.7309 55.76 67.5309 56.0373 67.2643 56.272C67.0029 56.5013 66.6803 56.68 66.2963 56.808C65.9176 56.936 65.4829 57 64.9923 57H61.6323V48.792H63.5123V51.832H64.9683Z" fill="#2D2D2D"/>
<defs>
<clipPath id="clip0_5105_19">
<rect width="36" height="36" fill="white" transform="translate(16)"/>
</clipPath>
</defs>
</svg>

<svg width="69" height="61" fill="none" xmlns="http://www.w3.org/2000/svg"><g clip-path="url(#a)"><path d="M34 18c3.315 0 6-2.685 6-6s-2.685-6-6-6-6 2.685-6 6 2.685 6 6 6Zm0 3c-4.005 0-12 2.01-12 6v3h24v-3c0-3.99-7.995-6-12-6Z" fill="#2D2D2D"/></g><path d="M10.64 57H8.472v-9.912H3.448V57h-2.16V45.432h9.352V57Zm4.109-2.128c.224.272.466.464.728.576.266.112.555.168.864.168.299 0 .568-.056.808-.168.24-.112.442-.283.608-.512.17-.23.301-.517.392-.864.09-.352.136-.765.136-1.24 0-.48-.04-.885-.12-1.216-.075-.336-.184-.608-.328-.816a1.304 1.304 0 0 0-.528-.456 1.608 1.608 0 0 0-.696-.144c-.41 0-.76.088-1.048.264-.288.17-.56.413-.816.728v3.68Zm-.104-4.96a4.28 4.28 0 0 1 1.144-.92c.426-.235.928-.352 1.504-.352.448 0 .856.093 1.224.28.373.187.693.459.96.816.272.352.48.79.624 1.312.15.517.224 1.112.224 1.784 0 .613-.083 1.181-.248 1.704a4.128 4.128 0 0 1-.712 1.36 3.264 3.264 0 0 1-1.112.904c-.432.213-.918.32-1.456.32-.459 0-.85-.07-1.176-.208a2.934 2.934 0 0 1-.872-.592v3.36h-1.976V48.792h1.208c.256 0 .424.12.504.36l.16.76Zm10.838-1.248c.608 0 1.16.099 1.656.296.501.197.928.477 1.28.84.357.363.632.805.824 1.328.192.523.288 1.107.288 1.752 0 .65-.096 1.237-.288 1.76a3.741 3.741 0 0 1-.824 1.336c-.352.368-.779.65-1.28.848a4.445 4.445 0 0 1-1.656.296 4.53 4.53 0 0 1-1.672-.296 3.616 3.616 0 0 1-1.288-.848 3.896 3.896 0 0 1-.824-1.336 5.076 5.076 0 0 1-.288-1.76c0-.645.096-1.23.288-1.752a3.81 3.81 0 0 1 .824-1.328 3.669 3.669 0 0 1 1.288-.84 4.53 4.53 0 0 1 1.672-.296Zm0 6.936c.683 0 1.187-.23 1.512-.688.33-.459.496-1.13.496-2.016 0-.885-.165-1.56-.496-2.024-.325-.464-.83-.696-1.512-.696-.693 0-1.208.235-1.544.704-.33.464-.496 1.136-.496 2.016 0 .88.165 1.552.496 2.016.336.459.85.688 1.544.688Zm11.292.048c.794-.059 1.407-.325 1.84-.8.437-.475.655-1.125.655-1.952s-.218-1.477-.656-1.952c-.431-.48-1.045-.75-1.84-.808v5.512Zm-1.728-5.512a3.197 3.197 0 0 0-1.056.256 2.346 2.346 0 0 0-.785.552 2.376 2.376 0 0 0-.488.848 3.38 3.38 0 0 0-.168 1.104c0 .41.056.781.169 1.112.111.325.274.605.487.84.22.23.48.413.784.552.31.133.662.216 1.056.248v-5.512Zm1.792-1.464a5.723 5.723 0 0 1 1.791.376 4.167 4.167 0 0 1 1.392.856c.39.363.691.795.904 1.296a4.25 4.25 0 0 1 .32 1.68 4.33 4.33 0 0 1-.32 1.696 3.763 3.763 0 0 1-.904 1.296 4.27 4.27 0 0 1-1.392.864 5.723 5.723 0 0 1-1.791.376v2.64h-1.856v-2.64a5.806 5.806 0 0 1-1.8-.376 4.386 4.386 0 0 1-1.392-.864 3.815 3.815 0 0 1-.896-1.296 4.33 4.33 0 0 1-.32-1.696c0-.619.106-1.179.32-1.68.213-.501.512-.933.896-1.296.389-.363.853-.648 1.391-.856a5.806 5.806 0 0 1 1.8-.376v-3.24h1.857v3.24Zm13.279.12V57h-1.976v-4.792c0-.123.005-.256.016-.4.016-.15.034-.299.056-.448a3.877 3.877 0 0 1-.352.648c-.011.01-.064.085-.16.224l-.376.52-.512.728c-.192.267-.387.539-.584.816l-1.576 2.224a1.66 1.66 0 0 1-.296.328.588.588 0 0 1-.408.16h-1.208V48.8h1.976v4.792c0 .123-.008.259-.024.408-.011.144-.027.29-.048.44a4.18 4.18 0 0 1 .504-.864c.096-.133.218-.307.368-.52l.52-.72.584-.832c.464-.656.992-1.397 1.584-2.224.074-.117.173-.227.296-.328a.617.617 0 0 1 .416-.16h1.2ZM59.686 57H57.71v-6.696h-2.016a22.82 22.82 0 0 1-.296 2.608 11.367 11.367 0 0 1-.48 1.848c-.182.507-.387.915-.616 1.224a2.928 2.928 0 0 1-.72.712c-.256.17-.52.283-.792.336a3.895 3.895 0 0 1-.824.088c-.294 0-.51-.027-.648-.08-.134-.048-.2-.117-.2-.208V55.6h.472c.176 0 .352-.027.528-.08.176-.053.346-.163.512-.328.165-.165.322-.4.472-.704.15-.31.285-.715.408-1.216.128-.507.24-1.125.336-1.856.096-.73.17-1.605.224-2.624h5.616V57Zm5.298-1.416c.448 0 .782-.112 1-.336.224-.224.336-.512.336-.864 0-.15-.026-.293-.08-.432a.96.96 0 0 0-.232-.368 1.069 1.069 0 0 0-.416-.248 1.758 1.758 0 0 0-.616-.096h-1.464v2.344h1.472Zm-.016-3.752c.57 0 1.054.07 1.448.208.395.139.715.325.96.56.246.235.422.507.528.816.112.304.168.624.168.96 0 .384-.07.739-.208 1.064a2.25 2.25 0 0 1-.6.832 2.78 2.78 0 0 1-.968.536 4.067 4.067 0 0 1-1.304.192h-3.36v-8.208h1.88v3.04h1.456Z" fill="#2D2D2D"/><defs><clipPath id="a"><path fill="#fff" transform="translate(16)" d="M0 0h36v36H0z"/></clipPath></defs></svg>
